X: 134
T: The Full Hunt 
O: No 134 Page 64 William Clarke of Feltwell
N: End of tune has DC rather than DS
M: C
L: 1/8
K: D
a||!segno!fd d2 AF F2| Eeed e2 eg| fd d2 AF F2| Dddc d2 d:||
 g|fdad bdad| Beed e2 eg| fdad bdad| Addc d2 dg| fdad bdad| Beed e2 eg| fadf gbag| fedc dbag !D.S.!||

